img/advantage/blue/icon-8-b.svg

<svg width="65" height="63" viewBox="0 0 65 63" fill="none" xmlns="http://www.w3.org/2000/svg">
<path d="M48.555 37.5221C48.0283 37.5221 47.6014 37.9489 47.6014 38.4756V42.9143C46.4702 43.3096 45.656 44.3869 45.656 45.6514C45.656 47.2498 46.9565 48.5504 48.555 48.5504C49.8197 48.5504 50.8973 47.736 51.2923 46.6042L53.629 46.6035C54.1558 46.6034 54.5825 46.1763 54.5823 45.6497C54.5822 45.1231 54.1554 44.6964 53.6288 44.6964C53.6287 44.6964 53.6285 44.6964 53.6285 44.6964L51.2918 44.6971C51.0009 43.8649 50.3408 43.2051 49.5085 42.9143V38.4756C49.5087 37.9489 49.0817 37.5221 48.555 37.5221ZM48.555 46.6433C48.0081 46.6433 47.5631 46.1984 47.5631 45.6514C47.5631 45.1045 48.0079 44.6595 48.555 44.6595C49.102 44.6595 49.5469 45.1043 49.5469 45.6514C49.5469 46.1983 49.102 46.6433 48.555 46.6433Z" fill="#1E489B"/>
<path d="M30.2306 51.8693H3.84249C2.77532 51.8693 1.90722 51.0012 1.90722 49.9339V16.4613H55.5956V27.8907C55.5956 28.4175 56.0225 28.8443 56.5491 28.8443C57.0757 28.8443 57.5027 28.4173 57.5027 27.8907C57.5027 25.8088 57.5027 11.7888 57.5027 9.66446C57.5027 7.54574 55.7789 5.8221 53.6602 5.8221H51.259V4.77486C51.259 2.6404 49.5225 0.903935 47.388 0.903935C45.2536 0.903935 43.517 2.64027 43.517 4.77474V5.82197H38.8346V4.77474C38.8346 2.64027 37.0981 0.903809 34.9637 0.903809C32.8291 0.903809 31.0926 2.6404 31.0926 4.77474V5.82197H26.4101V4.77474C26.4101 2.64027 24.6736 0.903809 22.5391 0.903809C20.4047 0.903809 18.6682 2.6404 18.6682 4.77474V5.82197H13.9858V4.77474C13.9858 2.64027 12.2493 0.903809 10.1147 0.903809C7.98027 0.903809 6.24381 2.6404 6.24381 4.77474V5.82197H3.84249C1.72377 5.82185 0 7.54561 0 9.66434V49.934C0 52.0527 1.72377 53.7765 3.84249 53.7765H30.2306C30.7572 53.7765 31.1841 53.3495 31.1841 52.8229C31.1841 52.2963 30.7573 51.8693 30.2306 51.8693ZM45.4241 4.77474C45.4241 3.69195 46.305 2.8109 47.3879 2.8109C48.4708 2.8109 49.3518 3.69183 49.3518 4.77474V8.7763C49.3518 9.85908 48.4708 10.7401 47.3879 10.7401C46.305 10.7401 45.4241 9.85921 45.4241 8.7763V4.77474ZM34.9635 2.8109C36.0463 2.8109 36.9274 3.69183 36.9274 4.77474V8.7763C36.9274 9.85908 36.0464 10.7401 34.9635 10.7401C33.8806 10.7401 32.9996 9.85921 32.9996 8.7763V6.77793C32.9996 6.77717 32.9997 6.77628 32.9997 6.77552C32.9997 6.77463 32.9996 6.77387 32.9996 6.77311V4.77474C32.9997 3.69183 33.8807 2.8109 34.9635 2.8109ZM20.5753 4.77474C20.5753 3.69195 21.4562 2.8109 22.5391 2.8109C23.6219 2.8109 24.503 3.69183 24.503 4.77474V8.7763C24.503 9.85908 23.622 10.7401 22.5391 10.7401C21.4563 10.7401 20.5753 9.85921 20.5753 8.7763V4.77474ZM8.15077 4.77474C8.15077 3.69195 9.0317 2.8109 10.1146 2.8109C11.1974 2.8109 12.0784 3.69183 12.0784 4.77474V6.77425V6.77552V6.77679V8.7763C12.0784 9.85908 11.1975 10.7401 10.1146 10.7401C9.03183 10.7401 8.15077 9.85921 8.15077 8.7763V4.77474ZM1.90722 9.66434C1.90722 8.59729 2.77532 7.72906 3.84249 7.72906H6.24368V8.7763C6.24368 10.9108 7.98015 12.6472 10.1147 12.6472C12.2492 12.6472 13.9857 10.9106 13.9857 8.7763V7.72906H18.6681V8.7763C18.6681 10.9108 20.4045 12.6472 22.539 12.6472C24.6735 12.6472 26.4099 10.9106 26.4099 8.7763V7.72906H31.0923V8.7763C31.0923 10.9108 32.8288 12.6472 34.9634 12.6472C37.0979 12.6472 38.8343 10.9106 38.8343 8.7763V7.72906H43.5167V8.7763C43.5167 10.9108 45.2532 12.6472 47.3877 12.6472C49.5221 12.6472 51.2586 10.9106 51.2586 8.7763V7.72906H53.6598C54.727 7.72906 55.5952 8.59717 55.5952 9.66434V14.5541H1.90722V9.66434Z" fill="#1E489B"/>
<path d="M14.9196 22.4676C14.9196 21.4571 14.0974 20.6349 13.0868 20.6349H6.92096C5.91041 20.6349 5.08813 21.4571 5.08813 22.4676V28.6336C5.08813 29.6442 5.91041 30.4663 6.92096 30.4663H13.0868C14.0974 30.4663 14.9196 29.6442 14.9196 28.6336V22.4676ZM13.0125 28.5592H6.99535V22.5422H13.0125V28.5592Z" fill="#1E489B"/>
<path d="M27.4179 22.4676C27.4179 21.4571 26.5957 20.6349 25.5851 20.6349H19.4192C18.4087 20.6349 17.5864 21.4571 17.5864 22.4676V28.6336C17.5864 29.6442 18.4087 30.4663 19.4192 30.4663H25.5851C26.5957 30.4663 27.4179 29.6442 27.4179 28.6336V22.4676ZM25.5108 28.5592H19.4936V22.5422H25.5108V28.5592Z" fill="#1E489B"/>
<path d="M13.0868 36.402H6.92096C5.91041 36.402 5.08813 37.2242 5.08813 38.2347V44.4007C5.08813 45.4113 5.91041 46.2334 6.92096 46.2334H13.0868C14.0974 46.2334 14.9196 45.4113 14.9196 44.4007V38.2347C14.9196 37.2242 14.0975 36.402 13.0868 36.402ZM13.0125 44.3263H6.99535V38.3093H13.0125V44.3263Z" fill="#1E489B"/>
<path d="M25.5851 36.402H19.4192C18.4087 36.402 17.5864 37.2242 17.5864 38.2347V44.4007C17.5864 45.4113 18.4087 46.2334 19.4192 46.2334H25.5851C26.5957 46.2334 27.4179 45.4113 27.4179 44.4007V38.2347C27.4179 37.2242 26.5958 36.402 25.5851 36.402ZM25.5108 44.3263H19.4936V38.3093H25.5108V44.3263Z" fill="#1E489B"/>
<path d="M62.1123 36.3549L63.4325 35.0349C64.4871 33.9797 64.4874 32.2726 63.4324 31.2174L62.4396 30.2246C61.3848 29.1697 59.677 29.1694 58.6221 30.2245L57.1867 31.6599C55.672 30.722 53.9948 30.0229 52.2074 29.616V27.9364C53.3471 27.6 54.1814 26.5446 54.1814 25.2974V24.3523C54.1814 22.8349 52.9471 21.6007 51.43 21.6007H45.68C44.1628 21.6007 42.9286 22.835 42.9286 24.3523V25.2974C42.9286 26.5446 43.763 27.6001 44.9027 27.9364V29.616C43.1153 30.0229 41.4381 30.7221 39.9235 31.6599L38.6421 30.3786C39.3802 30.1417 39.9162 29.4494 39.9162 28.6338V22.4678C39.9162 21.4572 39.0939 20.6351 38.0834 20.6351H31.9175C30.907 20.6351 30.0847 21.4572 30.0847 22.4678V28.6338C30.0847 29.6443 30.907 30.4664 31.9175 30.4664H34.4288L33.6779 31.2174C32.6226 32.2724 32.6228 33.9799 33.6777 35.0351L34.9977 36.355C33.1774 39.0013 32.1103 42.2039 32.1103 45.6514C32.1103 54.7192 39.4874 62.0964 48.5553 62.0964C57.6231 62.0964 64.9999 54.7192 64.9999 45.6514C64.9999 42.2039 63.9326 39.0013 62.1123 36.3549ZM59.9708 31.5731C60.2808 31.2628 60.7807 31.2629 61.0907 31.5732L62.0836 32.5661C62.3934 32.8756 62.3945 33.3756 62.0838 33.6864L60.9331 34.8371C60.2759 34.086 59.5519 33.3951 58.77 32.7736L59.9708 31.5731ZM44.8355 24.3523C44.8355 23.8866 45.2142 23.5078 45.6799 23.5078H51.4299C51.8955 23.5078 52.2742 23.8866 52.2742 24.3523V25.2974C52.2742 25.7631 51.8955 26.1418 51.4299 26.1418H45.6799C45.2142 26.1418 44.8355 25.7631 44.8355 25.2974V24.3523ZM46.8097 28.0489H50.3002V29.2991C49.7265 29.2383 49.1444 29.2064 48.555 29.2064C47.9656 29.2064 47.3833 29.2383 46.8098 29.2991V28.0489H46.8097ZM31.9917 22.5422H38.0089V28.5592H31.9917V22.5422ZM35.0261 33.6864C34.7162 33.3767 34.7149 32.8772 35.0261 32.566L36.0189 31.5732C36.3285 31.2633 36.8283 31.2623 37.1392 31.5732L38.3397 32.7736C37.5579 33.395 36.8338 34.0859 36.1767 34.8371L35.0261 33.6864ZM48.5549 60.1892C40.5388 60.1892 34.0171 53.6675 34.0171 45.6514C34.0171 37.6354 40.5388 31.1137 48.5549 31.1137C56.5709 31.1137 63.0927 37.6354 63.0927 45.6514C63.0927 53.6675 56.5711 60.1892 48.5549 60.1892Z" fill="#1E489B"/>
<path d="M48.555 33.2165C42.6214 33.2165 37.4891 37.4369 36.3516 43.2515C36.2506 43.7683 36.5875 44.2693 37.1045 44.3703C37.6216 44.4718 38.1221 44.1345 38.2233 43.6175C39.1861 38.6958 43.5312 35.1236 48.555 35.1236C54.36 35.1236 59.0827 39.8464 59.0827 45.6513C59.0827 51.4562 54.36 56.179 48.555 56.179C43.5427 56.179 39.1995 52.6165 38.2278 47.7079C38.1254 47.1912 37.624 46.8554 37.1071 46.9576C36.5904 47.06 36.2547 47.5616 36.3569 48.0783C37.5048 53.8772 42.6348 58.0862 48.555 58.0862C55.4116 58.0862 60.99 52.508 60.99 45.6513C60.99 38.7946 55.4118 33.2165 48.555 33.2165Z" fill="#1E489B"/>
</svg>

<svg width="65" height="63" fill="none" xmlns="http://www.w3.org/2000/svg"><path d="M48.555 37.522a.953.953 0 0 0-.954.954v4.438a2.904 2.904 0 0 0-1.945 2.737c0 1.599 1.3 2.9 2.899 2.9a2.903 2.903 0 0 0 2.737-1.947h2.337a.953.953 0 1 0 0-1.908l-2.337.001a2.912 2.912 0 0 0-1.784-1.783v-4.438a.953.953 0 0 0-.953-.954zm0 9.121a.993.993 0 0 1 0-1.983.993.993 0 0 1 0 1.983zM30.23 51.87H3.843a1.937 1.937 0 0 1-1.935-1.936V16.46h53.689v11.43a.953.953 0 1 0 1.907 0V9.664a3.847 3.847 0 0 0-3.843-3.842H51.26V4.775A3.875 3.875 0 0 0 47.388.904a3.875 3.875 0 0 0-3.871 3.87v1.048h-4.682V4.775A3.875 3.875 0 0 0 34.964.904a3.875 3.875 0 0 0-3.871 3.87v1.048H26.41V4.775A3.875 3.875 0 0 0 22.54.904a3.875 3.875 0 0 0-3.872 3.87v1.048h-4.682V4.775A3.875 3.875 0 0 0 10.115.904a3.875 3.875 0 0 0-3.871 3.87v1.048H3.842A3.847 3.847 0 0 0 0 9.664v40.27a3.847 3.847 0 0 0 3.842 3.843h26.389a.954.954 0 0 0 0-1.908zM45.425 4.774c0-1.083.881-1.964 1.964-1.964s1.964.88 1.964 1.964v4.001a1.966 1.966 0 0 1-1.964 1.964 1.966 1.966 0 0 1-1.964-1.964V4.775zM34.964 2.81c1.082 0 1.963.88 1.963 1.964v4.001a1.966 1.966 0 0 1-1.963 1.964A1.966 1.966 0 0 1 33 8.776V4.775c0-1.083.88-1.964 1.964-1.964zM20.575 4.775c0-1.083.881-1.964 1.964-1.964s1.964.88 1.964 1.964v4.001a1.966 1.966 0 0 1-1.964 1.964 1.966 1.966 0 0 1-1.964-1.964V4.775zm-12.424 0c0-1.083.88-1.964 1.964-1.964 1.082 0 1.963.88 1.963 1.964v4.002c0 1.082-.88 1.963-1.963 1.963A1.966 1.966 0 0 1 8.15 8.776V4.775zm-6.244 4.89c0-1.068.868-1.936 1.935-1.936h2.402v1.047a3.875 3.875 0 0 0 3.87 3.871 3.875 3.875 0 0 0 3.872-3.87V7.728h4.682v1.047a3.875 3.875 0 0 0 3.871 3.871 3.875 3.875 0 0 0 3.87-3.87V7.728h4.683v1.047a3.875 3.875 0 0 0 3.871 3.871 3.875 3.875 0 0 0 3.871-3.87V7.728h4.683v1.047a3.875 3.875 0 0 0 3.87 3.871 3.875 3.875 0 0 0 3.872-3.87V7.728h2.4c1.068 0 1.936.868 1.936 1.935v4.89H1.907v-4.89z" fill="#1E489B"/><path d="M14.92 22.468c0-1.01-.823-1.833-1.833-1.833H6.92c-1.01 0-1.833.822-1.833 1.833v6.166c0 1.01.822 1.832 1.833 1.832h6.166c1.01 0 1.833-.822 1.833-1.832v-6.166zm-1.908 6.091H6.995v-6.017h6.017v6.017zM27.418 22.468c0-1.01-.822-1.833-1.833-1.833H19.42c-1.01 0-1.833.822-1.833 1.833v6.166c0 1.01.823 1.832 1.833 1.832h6.166c1.01 0 1.833-.822 1.833-1.832v-6.166zm-1.907 6.091h-6.017v-6.017h6.017v6.017zM13.087 36.402H6.92c-1.01 0-1.833.822-1.833 1.833V44.4c0 1.01.822 1.832 1.833 1.832h6.166c1.01 0 1.833-.822 1.833-1.832v-6.166c0-1.01-.822-1.833-1.833-1.833zm-.075 7.924H6.995V38.31h6.017v6.017zM25.585 36.402H19.42c-1.01 0-1.833.822-1.833 1.833V44.4c0 1.01.823 1.832 1.833 1.832h6.166c1.01 0 1.833-.822 1.833-1.832v-6.166c0-1.01-.822-1.833-1.833-1.833zm-.074 7.924h-6.017V38.31h6.017v6.017zM62.112 36.355l1.32-1.32a2.698 2.698 0 0 0 0-3.818l-.992-.992a2.698 2.698 0 0 0-3.818 0l-1.435 1.435a16.347 16.347 0 0 0-4.98-2.044v-1.68a2.756 2.756 0 0 0 1.974-2.639v-.945a2.755 2.755 0 0 0-2.751-2.751h-5.75a2.755 2.755 0 0 0-2.751 2.751v.945c0 1.248.834 2.303 1.974 2.64v1.679a16.348 16.348 0 0 0-4.98 2.044l-1.28-1.281a1.835 1.835 0 0 0 1.273-1.745v-6.166c0-1.01-.822-1.833-1.833-1.833h-6.165c-1.011 0-1.833.822-1.833 1.833v6.166c0 1.01.822 1.832 1.832 1.832h2.512l-.751.751a2.698 2.698 0 0 0 0 3.818l1.32 1.32a16.35 16.35 0 0 0-2.888 9.296c0 9.068 7.377 16.445 16.445 16.445C57.623 62.096 65 54.72 65 45.651c0-3.447-1.067-6.65-2.888-9.296zm-2.141-4.782a.79.79 0 0 1 1.12 0l.993.993c.31.31.31.81 0 1.12l-1.15 1.151a16.598 16.598 0 0 0-2.164-2.063l1.2-1.2zm-15.135-7.22c0-.466.378-.845.844-.845h5.75c.465 0 .844.379.844.844v.945a.845.845 0 0 1-.844.845h-5.75a.845.845 0 0 1-.844-.845v-.945zm1.974 3.696h3.49v1.25a16.553 16.553 0 0 0-3.49 0v-1.25zm-14.818-5.507h6.017v6.017h-6.017v-6.017zm3.034 11.144a.79.79 0 0 1 0-1.12l.993-.993a.79.79 0 0 1 1.12 0l1.2 1.2a16.584 16.584 0 0 0-2.162 2.064l-1.15-1.15zM48.555 60.19c-8.016 0-14.538-6.522-14.538-14.538s6.522-14.537 14.538-14.537 14.538 6.521 14.538 14.537c0 8.016-6.522 14.538-14.538 14.538z" fill="#1E489B"/><path d="M48.555 33.217c-5.934 0-11.066 4.22-12.203 10.035a.953.953 0 1 0 1.871.365c.963-4.921 5.308-8.493 10.332-8.493 5.805 0 10.528 4.722 10.528 10.527 0 5.805-4.723 10.528-10.528 10.528-5.012 0-9.355-3.563-10.327-8.471a.954.954 0 1 0-1.871.37c1.148 5.8 6.278 10.008 12.198 10.008 6.857 0 12.435-5.578 12.435-12.435 0-6.856-5.578-12.434-12.435-12.434z" fill="#1E489B"/></svg>
